X:69
T:24 Psalm New Ver 46 P 2 Over. WHG.068
C:Composed by Edwd. Towerzey
R:hymn
S:W.H.Giles MS,Bampton,Oxfordshire,1839p67, 66
O:England
H:donated by Mrs W.R.Kettlewell to VWML,Apr 1927.
A:Bampton, Oxfordshire
N:The “Over” in the title is probably Old version.
N:The words to verse 9 in Tate and Brady are:
N:Erect your heads, ye gates,
N:unfold in state to entertain
N:The King of glory; see, he comes
N:with all his shining train.
Z:PJHeadford – VMP 2009
M:C|
L:1/4
Q:1/2=100
K:D
A|FD FA|FD FA|FD FA|d2zf|\
w:E-rect__ your he_ads E-ter__nal Gates Un-
e2 d2|g2 f2|ee3/4e/4 e<f|e2 e2|
w:fould to En-ter-tain
e>d cz|”_For”d2 zd|d2 zd|(cf) (ed)|\
c2 TB2|A4:|
e2 e>d|(c>B) (A>G)|(F>E) Dz|Hd2zc|\
“_Pia”d2(f>e)|(d>B) (c>A)|B3 D|
F>A d>f|(B2 e>)d|Hc2 zd|”_Slower”e2 (de)|\
f2Te2|Hd4|]

